marketplace_builder/assets/images/temp/open-book.svg

<svg enable-background="new 0 0 64 46.5" viewBox="0 0 64 46.5" xmlns="http://www.w3.org/2000/svg"><path d="m4.3 40.9c.3.2.6.2.9.1 9.1-3.6 17.8-3.7 26.4 0h.1.1.2.1.1c8.6-3.6 17.2-3.6 26.4 0 .5.2 1.1 0 1.3-.6 0-.1.1-.2.1-.4v-36c0-.4-.2-.7-.6-.9-8-3.5-17.2-3.6-27.4 0-10.2-3.6-19.4-3.5-27.5.1-.4.2-.6.5-.6.9v36c0 .3.1.7.4.8z" fill="#d2e2ef"/><path d="m63 4.2c-.6 0-1 .4-1 1v37.8h-24.5-.1c-.3-.1-.6 0-.8.2-2.9 2.3-5.9 2.3-9.1 0h-.1l-.2-.1h-.2-.1-24.9v-37.9c0-.6-.4-1-1-1s-1 .4-1 1v38.8c0 .6.4 1 1 1h25.5c1.6 1.2 3.6 1.9 5.6 2 2-.1 3.8-.8 5.4-2h25.5c.6 0 1-.4 1-1v-38.8c0-.5-.4-1-1-1z" fill="#d2e2ef"/><path d="m4.3 40.5c.3.2.6.2.9.1 9.1-3.6 17.8-3.7 26.4 0h.1.1.2.1.1c8.6-3.6 17.2-3.6 26.4 0 .5.2 1.1 0 1.3-.6 0-.1.1-.2.1-.4v-36c0-.4-.2-.7-.6-.9-8-3.6-17.2-3.6-27.4-.1-10.2-3.5-19.4-3.5-27.5.2-.4.1-.6.5-.6.9v36c0 .3.1.6.4.8zm53.8-36.2v33.9c-4.1-1.5-8.4-2.3-12.8-2.3-4.2 0-8.4.8-12.4 2.3v-33.8c9.4-3.1 17.8-3.2 25.2-.1zm-52.2 0c7.4-3 15.8-3 25.1.1v33.8c-8.1-3.1-17-3-25.1.1z" fill="#337ab7"/><path d="m63 3.8c-.6 0-1 .4-1 1v37.7h-24.5-.1c-.3-.1-.6 0-.8.2-2.9 2.3-5.9 2.3-9.1 0h-.1l-.2-.1h-.2-.1-24.9v-37.8c0-.6-.4-1-1-1s-1 .4-1 1v38.7c0 .6.4 1 1 1h25.5c1.6 1.2 3.6 1.9 5.6 2 2-.1 3.8-.8 5.4-2h25.5c.6 0 1-.4 1-1v-38.7c0-.5-.4-1-1-1z" fill="#337ab7"/><g fill="none" stroke="#337ab7" stroke-linecap="round" stroke-miterlimit="10" stroke-width="2"><path d="m11.8 13.1h13.9"/><path d="m11.8 18.3h13.9"/><path d="m11.8 23.9h13.8"/><path d="m38.1 13.1h13.8"/><path d="m38.1 18.3h13.8"/><path d="m38.1 23.9h13.8"/></g></svg>

<?xml version="1.0" encoding="utf-8"?>
<!-- Generator: Adobe Illustrator 19.2.1, SVG Export Plug-In . SVG Version: 6.00 Build 0)  -->
<svg version="1.1" id="Layer_1" xmlns="http://www.w3.org/2000/svg" xmlns:xlink="http://www.w3.org/1999/xlink" x="0px" y="0px"
	 viewBox="0 0 64 46.5" style="enable-background:new 0 0 64 46.5;" xml:space="preserve">
<style type="text/css">
	.st0{fill:#D2E2EF;}
	.st1{fill:#337AB7;}
	.st2{fill:none;stroke:#337AB7;stroke-width:2;stroke-linecap:round;stroke-miterlimit:10;}
</style>
<title>open-book</title>
<g id="Book">
	<path class="st0" d="M4.3,40.9c0.3,0.2,0.6,0.2,0.9,0.1c9.1-3.6,17.8-3.7,26.4,0l0,0h0.1h0.1h0.2h0.1h0.1l0,0
		c8.6-3.6,17.2-3.6,26.4,0c0.5,0.2,1.1,0,1.3-0.6c0-0.1,0.1-0.2,0.1-0.4v-36c0-0.4-0.2-0.7-0.6-0.9C51.4-0.4,42.2-0.5,32,3.1
		C21.8-0.5,12.6-0.4,4.5,3.2C4.1,3.4,3.9,3.7,3.9,4.1v36C3.9,40.4,4,40.8,4.3,40.9z"/>
	<path class="st0" d="M63,4.2c-0.6,0-1,0.4-1,1V43H37.5h-0.1c-0.3-0.1-0.6,0-0.8,0.2c-2.9,2.3-5.9,2.3-9.1,0h-0.1l-0.2-0.1h-0.2
		h-0.1H2V5.2c0-0.6-0.4-1-1-1s-1,0.4-1,1V44c0,0.6,0.4,1,1,1h25.5c1.6,1.2,3.6,1.9,5.6,2c2-0.1,3.8-0.8,5.4-2H63c0.6,0,1-0.4,1-1
		V5.2C64,4.7,63.6,4.2,63,4.2z"/>
</g>
<g id="Book-2">
	<path class="st1" d="M4.3,40.5c0.3,0.2,0.6,0.2,0.9,0.1c9.1-3.6,17.8-3.7,26.4,0l0,0h0.1h0.1h0.2h0.1h0.1l0,0
		c8.6-3.6,17.2-3.6,26.4,0c0.5,0.2,1.1,0,1.3-0.6c0-0.1,0.1-0.2,0.1-0.4v-36c0-0.4-0.2-0.7-0.6-0.9C51.4-0.9,42.2-0.9,32,2.6
		C21.8-0.9,12.6-0.9,4.5,2.8C4.1,2.9,3.9,3.3,3.9,3.7v36C3.9,40,4,40.3,4.3,40.5z M58.1,4.3v33.9c-4.1-1.5-8.4-2.3-12.8-2.3
		c-4.2,0-8.4,0.8-12.4,2.3V4.4C42.3,1.3,50.7,1.2,58.1,4.3z M5.9,4.3C13.3,1.3,21.7,1.3,31,4.4v33.8c-8.1-3.1-17-3-25.1,0.1
		C5.9,38.3,5.9,4.3,5.9,4.3z"/>
	<path class="st1" d="M63,3.8c-0.6,0-1,0.4-1,1v37.7H37.5h-0.1c-0.3-0.1-0.6,0-0.8,0.2c-2.9,2.3-5.9,2.3-9.1,0h-0.1l-0.2-0.1h-0.2
		h-0.1H2V4.8c0-0.6-0.4-1-1-1s-1,0.4-1,1v38.7c0,0.6,0.4,1,1,1h25.5c1.6,1.2,3.6,1.9,5.6,2c2-0.1,3.8-0.8,5.4-2H63c0.6,0,1-0.4,1-1
		V4.8C64,4.3,63.6,3.8,63,3.8z"/>
</g>
<line class="st2" x1="11.8" y1="13.1" x2="25.7" y2="13.1"/>
<line class="st2" x1="11.8" y1="18.3" x2="25.7" y2="18.3"/>
<line class="st2" x1="11.8" y1="23.9" x2="25.6" y2="23.9"/>
<line class="st2" x1="38.1" y1="13.1" x2="51.9" y2="13.1"/>
<line class="st2" x1="38.1" y1="18.3" x2="51.9" y2="18.3"/>
<line class="st2" x1="38.1" y1="23.9" x2="51.9" y2="23.9"/>
</svg>
